icon-themes/sifr_svg/cmd/sc_symbolshapes.cloud.svg

<svg viewBox="0 0 16 16" xmlns="http://www.w3.org/2000/svg"><g fill="#555753"><path d="m7 2c-1.37 0-2.35 1.02-2.7011719 2.2851562-.2788281-.0704122-.5063752-.2848481-.796875-.2851562h-.0019531c-1.921152 0-3.5 1.578848-3.5 3.5.00129617 1.3297357.8736567 2.3447667 2.0078125 2.933594-.0004761.020382-.0076927.04015-.0078125.060547v.005859c0 1.921152 1.578848 3.5 3.5 3.5h.00195c.8230279-.0012 1.5424221-.372352 2.1601594-.882812.6837558.512942 1.462627.881714 2.3359375.882812h.0019531c2.197294 0 4-1.802706 4-4v-.00195c-.000284-.1847108-.070066-.3587764-.095703-.5410188 1.175797-.5718239 2.094018-1.5895469 2.095703-2.9550781v-.0019531c0-1.921152-1.578848-3.5-3.5-3.5h-.002c-.937163.00113-1.753924.4620403-2.402297 1.1113281-.1696038-.0313281-.335703-.0913281-.495703-.0957031-.4494918-1.1149778-1.3373678-2.015625-2.6-2.015625zm0 2c.3115532 0 .5.1463729.7285156.75l.484375 1.2285156c.8700982-.044132 1.7209218.076663 2.5605474.2871094l.738281-.7402344c.38876-.3893085.703765-.5246376.986328-.5253906h.001953c.825387 0 1.5.6746128 1.5 1.5v.00195c-.0011.4694779-.266656.8138517-.970703 1.15625l-1.308594.6367188c.572406.7635782.54635 1.1030911.314456 1.8867182-.170258.736966-.981957 1.818363-2.035159 1.818363-.311783-.000392-.6700417-.130863-1.1386719-.482422l-1.2597656-.945312-1.2128906 1.003906c-.3969431.328009-.6652271.423502-.8886719.423828-.8110892 0-1.471389-.653158-1.4941406-1.458984.0007996-.03276.0008584-.01368.00195-.06055l.0293-1.2480441-1.1074219-.5742188c-.6714847-.348619-.9287183-.702868-.9296875-1.1582031v-.00195c.0009965-.7757024.7152221-1.379832 1.4726563-1.453125.144254.011274.3042863.027296.5712724.094942l1.6513838.5632614.5292969-1.875c.1717225-.6095305.4074367-.8281284.7753906-.8281284z"/><path d="m7 4c.3115532 0 .5.1463729.7285156.75l.484375 1.2285156c.8700982-.044132 1.7209218.076663 2.5605474.2871094l.738281-.7402344c.38876-.3893085.703765-.5246376.986328-.5253906h.001953c.825387 0 1.5.6746128 1.5 1.5v.00195c-.0011.4694779-.266656.8138517-.970703 1.15625l-1.308594.6367188c.562384.7809618.59964 1.2754096.314456 1.8867182-.076508 1.033841-.981957 1.818363-2.035159 1.818363-.311783-.000392-.6700417-.130863-1.1386719-.482422l-1.2597656-.945312-1.2128906 1.003906c-.3969431.328009-.6652271.423502-.8886719.423828-.8110892 0-1.471389-.653158-1.4941406-1.458984.0007996-.03276.0008584-.01368.00195-.06055l.0293-1.2480441-1.1074219-.5742188c-.6714847-.348619-.9287183-.702868-.9296875-1.1582031v-.00195c.0009965-.7757024.7152221-1.379832 1.4726563-1.453125.144254.011274.3042863.027296.5712724.094942l1.6513838.5632614.5292969-1.875c.1717225-.6095305.4074367-.8281284.7753906-.8281284z" opacity=".35"/></g></svg>

<svg xmlns="http://www.w3.org/2000/svg" viewBox="0 0 16 16">
  <path
     style="fill:#555753"
     d="M 7,2 C 5.63,2 4.65,3.02 4.2988281,4.2851562 4.02,4.214744 3.7924529,4.0003081 3.5019531,4 H 3.5 C 1.578848,4 0,5.578848 0,7.5 0.00129617,8.8297357 0.8736567,9.8447667 2.0078125,10.433594 2.0073364,10.453976 2.0001198,10.473744 2,10.494141 V 10.5 C 2,12.421152 3.578848,14 5.5,14 H 5.50195 C 6.3249779,13.9988 7.0443721,13.627648 7.6621094,13.117188 8.3458652,13.63013 9.1247364,13.998902 9.9980469,14 H 10 c 2.197294,0 4,-1.802706 4,-4 V 9.99805 C 13.999716,9.8133392 13.929934,9.6392736 13.904297,9.4570312 15.080094,8.8852073 15.998315,7.8674843 16,6.5019531 V 6.5 C 16,4.578848 14.421152,3 12.5,3 H 12.498 C 11.560837,3.00113 10.744076,3.4620403 10.095703,4.1113281 9.9260992,4.08 9.76,4.02 9.6,4.015625 9.1505082,2.9006472 8.2626322,2 7,2 Z m 0,2 c 0.3115532,0 0.5,0.1463729 0.7285156,0.75 l 0.484375,1.2285156 c 0.8700982,-0.044132 1.7209218,0.076663 2.5605474,0.2871094 L 11.511719,5.5253906 C 11.900479,5.1360821 12.215484,5.000753 12.498047,5 H 12.5 C 13.325387,5 14,5.6746128 14,6.5 V 6.50195 C 13.9989,6.9714279 13.733344,7.3158017 13.029297,7.6582 l -1.308594,0.6367188 c 0.572406,0.7635782 0.54635,1.1030911 0.314456,1.8867182 C 11.864901,10.918603 11.053202,12 10,12 9.688217,11.999608 9.3299583,11.869137 8.8613281,11.517578 L 7.6015625,10.572266 6.3886719,11.576172 C 5.9917288,11.904181 5.7234448,11.999674 5.5,12 4.6889108,12 4.028611,11.346842 4.0058594,10.541016 c 7.996e-4,-0.03276 8.584e-4,-0.01368 0.00195,-0.06055 L 4.0371094,9.2324219 2.9296875,8.6582031 C 2.2582028,8.3095841 2.0009692,7.9553351 2,7.5 V 7.49805 C 2.0009965,6.7223476 2.7152221,6.118218 3.4726563,6.044925 3.6169103,6.056199 3.7769426,6.072221 4.0439287,6.139867 l 1.6513838,0.5632614 0.5292969,-1.875 C 6.3963319,4.2185979 6.6320461,4 7,4 Z"
     />
  <path
     style="opacity:0.35;fill:#555753"
     d="m 7,4 c 0.3115532,0 0.5,0.1463729 0.7285156,0.75 l 0.484375,1.2285156 c 0.8700982,-0.044132 1.7209218,0.076663 2.5605474,0.2871094 L 11.511719,5.5253906 C 11.900479,5.1360821 12.215484,5.000753 12.498047,5 H 12.5 C 13.325387,5 14,5.6746128 14,6.5 V 6.50195 C 13.9989,6.9714279 13.733344,7.3158017 13.029297,7.6582 l -1.308594,0.6367188 c 0.562384,0.7809618 0.59964,1.2754096 0.314456,1.8867182 C 11.958651,11.215478 11.053202,12 10,12 9.688217,11.999608 9.3299583,11.869137 8.8613281,11.517578 L 7.6015625,10.572266 6.3886719,11.576172 C 5.9917288,11.904181 5.7234448,11.999674 5.5,12 4.6889108,12 4.028611,11.346842 4.0058594,10.541016 c 7.996e-4,-0.03276 8.584e-4,-0.01368 0.00195,-0.06055 L 4.0371094,9.2324219 2.9296875,8.6582031 C 2.2582028,8.3095841 2.0009692,7.9553351 2,7.5 V 7.49805 C 2.0009965,6.7223476 2.7152221,6.118218 3.4726563,6.044925 3.6169103,6.056199 3.7769426,6.072221 4.0439287,6.139867 l 1.6513838,0.5632614 0.5292969,-1.875 C 6.3963319,4.2185979 6.6320461,4 7,4 Z"
     />
</svg>
